img/icons/logo_wht.svg

<svg   fill="none" xmlns="http://www.w3.org/2000/svg">
<path d="M94.3623 18.8411H119.543L118.298 24.6763H102.315L101.725 27.5349H114.669L113.424 33.3701H100.48L99.8254 36.5172H116.595L115.285 42.6541H89.3184L94.3623 18.8411Z" fill="white"/>
<path d="M124.689 18.8411H133.908L132.174 27.0805L142.392 18.8411H154.868L143.114 27.4347L150.797 42.6541H139.345L134.985 32.9714L130.231 36.2514L128.891 42.6541H119.672L124.689 18.8411Z" fill="white"/>
<path d="M164.11 24.8763H155.523L156.808 18.8411H183.262L181.977 24.8763H173.351L169.576 42.6541H160.334L164.11 24.8763Z" fill="white"/>
<path d="M185.967 18.8411H203.759C209.724 18.8411 212.831 21.0703 212.831 24.8468C212.831 30.8131 207.915 34.288 200.481 34.288H191.893L190.123 42.6541H180.906L185.967 18.8411ZM194.096 23.9551L193.021 29.0953H198.068C200.822 29.0953 202.684 28.3348 202.684 25.7122C202.71 24.3354 201.504 23.942 199.144 23.942H194.096V23.9551Z" fill="white"/>
<path d="M215.543 36.8975C216.395 37.1847 217.142 37.3545 217.836 37.3545C219.212 37.3545 220.299 36.7278 221.085 35.4222L213.355 18.8411H223.443L226.561 29.2597L232.994 18.8541H243.58L230.086 36.0227C227.492 39.3129 226.574 40.1354 225.631 40.9579C223.823 42.5899 221.334 43.1774 219.107 43.1774C217.378 43.1774 215.963 42.9163 214.325 42.5507L215.543 36.8975Z" fill="white"/>
<path d="M89.7099 18.8413H75.7741L55.4297 42.6149H55.469L55.4297 42.6543H66.4287L78.9073 26.3591L75.4636 42.6543H84.6687L89.7099 18.8413Z" fill="white"/>
<path d="M244.7 18.8411H258.355L259.299 33.3388L266.743 18.8411H280.215L275.169 42.6541H266.612L270.543 24.0497L260.976 42.6541H253.769L252.13 24.0497L248.199 42.6541H239.654L244.7 18.8411Z" fill="white"/>
<path d="M51.7519 14.7187C57.1825 24.1201 50.1385 38.3269 36.0242 46.4581C34.0959 47.5711 32.1414 48.5139 30.1738 49.2733L31.3806 50.8969C35.775 50.1244 40.3792 48.4746 44.7997 45.9213C58.914 37.79 65.958 23.5702 60.5274 14.1819C56.7234 7.5957 47.7905 5.12096 37.9262 7.04575C44.052 7.5957 49.1153 10.1752 51.7519 14.7187Z" fill="white"/>
<path d="M35.2895 6.347L44.9893 0.56952L41.858 15.5446L35.2895 6.347Z" fill="white"/>
<path d="M11.6075 43.3744C6.17686 33.973 13.2209 19.7663 27.3352 11.635C29.2635 10.522 31.2179 9.57926 33.1855 8.81982L31.9787 7.19619C27.5844 7.96872 22.9802 9.61854 18.5597 12.1718C4.44537 20.3031 -2.59867 34.523 2.83193 43.9113C6.63597 50.4974 15.5689 52.9722 25.4332 51.0474C19.3074 50.4974 14.244 47.918 11.6075 43.3744Z" fill="white"/>
<path d="M28.0698 51.7461L18.3701 57.5236L21.5014 42.5486L28.0698 51.7461Z" fill="white"/>
<path d="M58.0442 33.3643L59.3526 27.4764L40.9041 27.4764L39.5957 33.3643L58.0442 33.3643Z" fill="white"/>
</svg>

<svg fill="none" xmlns="http://www.w3.org/2000/svg"><path d="M94.362 18.841h25.181l-1.245 5.835h-15.983l-.59 2.859h12.944l-1.245 5.835H100.48l-.655 3.147h16.77l-1.31 6.137H89.318l5.044-23.813zm30.327 0h9.219l-1.734 8.24 10.218-8.24h12.476l-11.754 8.594 7.683 15.22h-11.452l-4.36-9.684-4.754 3.28-1.34 6.403h-9.219l5.017-23.813zm39.421 6.035h-8.587l1.285-6.035h26.454l-1.285 6.035h-8.626l-3.775 17.778h-9.242l3.776-17.778zm21.857-6.035h17.792c5.965 0 9.072 2.23 9.072 6.006 0 5.966-4.916 9.441-12.35 9.441h-8.588l-1.77 8.366h-9.217l5.061-23.813zm8.129 5.114l-1.075 5.14h5.047c2.754 0 4.616-.76 4.616-3.383.026-1.377-1.18-1.77-3.54-1.77h-5.048v.013zm21.447 12.943c.852.287 1.599.456 2.293.456 1.376 0 2.463-.626 3.249-1.932l-7.73-16.58h10.088l3.118 10.418 6.433-10.406h10.586l-13.494 17.169c-2.594 3.29-3.512 4.112-4.455 4.935-1.808 1.632-4.297 2.22-6.524 2.22-1.729 0-3.144-.262-4.782-.627l1.218-5.654zM89.71 18.841H75.774L55.43 42.615h.039l-.04.04h11l12.478-16.296-3.443 16.295h9.205l5.04-23.813zm154.99 0h13.655l.944 14.498 7.444-14.498h13.472l-5.046 23.813h-8.557l3.931-18.604-9.567 18.604h-7.207L252.13 24.05l-3.931 18.604h-8.545l5.046-23.813zM51.752 14.719c5.43 9.401-1.614 23.608-15.728 31.74a41.914 41.914 0 01-5.85 2.814l1.207 1.624c4.394-.773 8.998-2.422 13.419-4.976 14.114-8.131 21.158-22.35 15.727-31.74-3.804-6.585-12.736-9.06-22.6-7.135 6.125.55 11.188 3.13 13.825 7.673z" fill="#fff"/><path d="M35.29 6.347L44.99.57l-3.132 14.975-6.569-9.198zM11.607 43.374c-5.43-9.401 1.614-23.608 15.728-31.739a41.918 41.918 0 015.85-2.815L31.98 7.196c-4.395.773-8.999 2.423-13.42 4.976C4.446 20.303-2.598 34.523 2.833 43.912c3.804 6.585 12.737 9.06 22.601 7.135-6.126-.55-11.189-3.129-13.825-7.673z" fill="#fff"/><path d="M28.07 51.746l-9.7 5.778 3.131-14.975 6.569 9.197zm29.974-18.382l1.309-5.888H40.904l-1.308 5.888h18.448z" fill="#fff"/></svg>
